material/.icons/material/pen-remove.svg

<svg xmlns="http://www.w3.org/2000/svg" viewBox="0 0 24 24"><path d="M20.7 7c-.3.4-.7.7-.7 1 0 .3.3.6.6 1 .5.5 1 .9.9 1.4 0 .5-.5 1-1 1.5L16.4 16 15 14.7l4.2-4.2-1-1-1.4 1.4L13 7.1l4-3.8c.4-.4 1-.4 1.4 0l2.3 2.3c.4.4.4 1.1 0 1.4M3 17.2l9.6-9.6 3.7 3.8L6.8 21H3v-3.8m.88-14.74L6 4.59l2.12-2.13 1.42 1.42L7.41 6l2.13 2.12-1.42 1.42L6 7.41 3.88 9.54 2.46 8.12 4.59 6 2.46 3.88l1.42-1.42z"/></svg>

<?xml version="1.0" encoding="UTF-8"?><!DOCTYPE svg PUBLIC "-//W3C//DTD SVG 1.1//EN" "http://www.w3.org/Graphics/SVG/1.1/DTD/svg11.dtd"><svg xmlns="http://www.w3.org/2000/svg" xmlns:xlink="http://www.w3.org/1999/xlink" version="1.1" id="mdi-pen-remove" width="24" height="24" viewBox="0 0 24 24"><path d="M20.7,7C20.4,7.4 20,7.7 20,8C20,8.3 20.3,8.6 20.6,9C21.1,9.5 21.6,9.9 21.5,10.4C21.5,10.9 21,11.4 20.5,11.9L16.4,16L15,14.7L19.2,10.5L18.2,9.5L16.8,10.9L13,7.1L17,3.3C17.4,2.9 18,2.9 18.4,3.3L20.7,5.6C21.1,6 21.1,6.7 20.7,7M3,17.2L12.6,7.6L16.3,11.4L6.8,21H3V17.2M3.88,2.46L6,4.59L8.12,2.46L9.54,3.88L7.41,6L9.54,8.12L8.12,9.54L6,7.41L3.88,9.54L2.46,8.12L4.59,6L2.46,3.88L3.88,2.46Z" /></svg>
